X: 25373
T: Marcan Kelly
R: reel
M: 4/4
K: Adorian
|:G,A,CD EDCD|EGAB cBcd|eaag egdB|A2 GA BGEG|
G,A,CD EDCD|EGAB cBcd|eaag egdB|A2 GA BA A2:|
|:eggf gedg|ecgc d2 cd|eaag aged|eagb aged|
eggf gedB|A2 GA Bd d2|egfa gedB|A2 GA BA A2:|

